src/images/svg/be-square/platform-architecture.svg

<svg width="48" height="48" viewBox="0 0 48 48" fill="none" xmlns="http://www.w3.org/2000/svg">
<path d="M24.5727 10.0773C24.3384 9.84306 23.9587 9.84306 23.7244 10.0773L21.3245 12.4772L22.1728 13.3255L23.5486 11.9498V15.9012H24.7485V11.9498L26.1243 13.3255L26.9726 12.4772L24.5727 10.0773Z" fill="#FF444F"/>
<path d="M23.5489 33.0001C23.5489 33.3315 23.8175 33.6001 24.1488 33.6001C24.4802 33.6001 24.7488 33.3315 24.7488 33.0001C24.7488 32.6688 24.4802 32.4001 24.1488 32.4001C23.8175 32.4001 23.5489 32.6688 23.5489 33.0001Z" fill="#FF444F"/>
<path d="M9.74927 15.6013H15.1491V16.8012H9.74927V15.6013Z" fill="#FF444F"/>
<path d="M10.9493 13.2004H9.74927V14.4004H10.9493V13.2004Z" fill="#FF444F"/>
<path d="M33.1494 15.6013H38.5492V16.8012H33.1494V15.6013Z" fill="#FF444F"/>
<path d="M34.3493 13.2004H33.1494V14.4004H34.3493V13.2004Z" fill="#FF444F"/>
<path fill-rule="evenodd" clip-rule="evenodd" d="M30.6891 10.2013H37.9488C39.936 10.2033 41.5466 11.8138 41.5486 13.8011V32.4004C41.5467 34.3877 39.9361 35.9983 37.9488 36.0002H28.5807L29.3817 38.4001H36.1488C37.1429 38.4001 37.9488 39.206 37.9488 40.2001C37.9488 41.1941 37.1429 42 36.1488 42H12.1498C11.1557 42 10.3499 41.1941 10.3499 40.2001C10.3499 39.206 11.1557 38.4001 12.1498 38.4001H18.9169L19.7179 36.0002H10.3499C8.36251 35.9983 6.75195 34.3877 6.75 32.4004V13.8011C6.75195 11.8138 8.36251 10.2032 10.3499 10.2013H17.6156C18.3337 8.63014 19.5936 7.37019 21.1647 6.6521C24.7749 5.00216 29.039 6.59112 30.6891 10.2013ZM30.1491 13.2011C30.1491 9.88754 27.4629 7.20137 24.1493 7.20137C20.8372 7.20505 18.1531 9.88912 18.1495 13.2011C18.1495 16.5147 20.8357 19.2009 24.1493 19.2009C27.4629 19.2009 30.1491 16.5147 30.1491 13.2011ZM36.7488 40.2001C36.7488 39.8687 36.4802 39.6001 36.1488 39.6001H12.1498C11.8184 39.6001 11.5498 39.8687 11.5498 40.2001C11.5498 40.5314 11.8184 40.8 12.1498 40.8H36.1488C36.4802 40.8 36.7488 40.5314 36.7488 40.2001ZM20.9832 36.0002L20.1823 38.4001H28.1152L27.3154 36.0002H20.9832ZM37.9488 34.8003C39.2742 34.8003 40.3487 33.7258 40.3487 32.4004V31.2004H7.94995V32.4004C7.94995 33.7258 9.02443 34.8003 10.3499 34.8003H37.9488ZM7.94995 30.0005H40.3486V13.8011C40.3486 12.4757 39.2741 11.4012 37.9487 11.4012H31.112C31.6347 13.3739 31.2839 15.4762 30.149 17.1724V20.63L32.7223 21.9164C33.0302 21.1354 33.7247 20.5729 34.5525 20.4338C35.8563 20.2146 37.0909 21.094 37.3101 22.3978C37.5292 23.7016 36.6499 24.9362 35.3461 25.1554C34.0422 25.3745 32.8076 24.4952 32.5885 23.1913L29.2808 21.5378C29.0774 21.4362 28.949 21.2282 28.949 21.0008V18.5523C28.093 19.3225 27.064 19.8753 25.9492 20.1639V22.4798L27.0291 23.1997C27.4249 22.9381 27.8891 22.7994 28.3635 22.8008C29.6929 22.8049 30.7674 23.8858 30.7634 25.2152C30.7593 26.5446 29.6784 27.6191 28.349 27.615C27.0196 27.611 25.9451 26.5301 25.9492 25.2007C25.9516 24.8189 26.0465 24.4434 26.2258 24.1063L25.0162 23.2999C24.8493 23.1886 24.7492 23.0013 24.7492 22.8008V20.3702C24.5506 20.387 24.352 20.4008 24.1492 20.4008C23.9464 20.4008 23.7479 20.387 23.5493 20.3702V24.0007C23.5493 24.2012 23.4491 24.3886 23.2823 24.4999L22.0727 25.3063C22.4909 26.1138 22.4323 27.0856 21.92 27.837C21.1505 28.9658 19.6115 29.2572 18.4827 28.4876C17.3538 27.7181 17.0625 26.1791 17.8321 25.0503C18.6016 23.9214 20.1406 23.6301 21.2694 24.3997L22.3494 23.6797V20.1639C21.2346 19.8753 20.2056 19.3225 19.3495 18.5523V21.6008C19.3485 21.8583 19.1834 22.0864 18.9391 22.1678L15.7046 23.2477C15.5499 24.0858 14.9598 24.7778 14.1566 25.0629C12.9147 25.5038 11.5506 24.8545 11.1097 23.6126C10.6687 22.3707 11.3181 21.0066 12.5599 20.5657C13.8018 20.1248 15.1659 20.7741 15.6068 22.016L18.1495 21.1682V17.1724C17.0157 15.4757 16.666 13.3736 17.1896 11.4012H10.3499C9.02443 11.4012 7.94995 12.4757 7.94995 13.8011V30.0005ZM13.3497 24.0007C14.0125 24.0007 14.5497 23.4635 14.5497 22.8008C14.5497 22.1381 14.0125 21.6008 13.3497 21.6008C12.687 21.6008 12.1498 22.138 12.1498 22.8008C12.1498 23.4635 12.687 24.0007 13.3497 24.0007ZM19.9495 27.6006C20.6122 27.6006 21.1494 27.0634 21.1494 26.4006C21.1494 25.7379 20.6122 25.2007 19.9495 25.2007C19.2867 25.2007 18.7495 25.7379 18.7495 26.4006C18.7495 27.0634 19.2867 27.6006 19.9495 27.6006ZM28.3491 24.0007C27.6864 24.0007 27.1492 24.5379 27.1492 25.2007C27.1492 25.8634 27.6864 26.4006 28.3491 26.4006C29.0119 26.4006 29.5491 25.8634 29.5491 25.2007C29.5491 24.5379 29.0119 24.0007 28.3491 24.0007ZM34.9489 21.6008C34.2861 21.6008 33.7489 22.138 33.7489 22.8008C33.7489 23.4635 34.2861 24.0007 34.9489 24.0007C35.6116 24.0007 36.1488 23.4635 36.1488 22.8008C36.1488 22.138 35.6116 21.6008 34.9489 21.6008Z" fill="#FF444F"/>
</svg>

<svg xmlns="http://www.w3.org/2000/svg" width="48" height="48" fill="#ff444f"  xmlns:v="https://vecta.io/nano"><path d="M24.573 10.077a.6.6 0 0 0-.848 0l-2.4 2.4.848.848 1.376-1.376V15.9h1.2v-3.95l1.376 1.376.848-.848-2.4-2.4zM23.549 33a.6.6 0 1 0 .6-.6.6.6 0 0 0-.6.6zm-13.8-17.399h5.4v1.2h-5.4v-1.2zm1.2-2.401h-1.2v1.2h1.2v-1.2zm22.2 2.401h5.4v1.2h-5.4v-1.2zm1.2-2.401h-1.2v1.2h1.2v-1.2z"/><path fill-rule="evenodd" d="M30.689 10.201h7.26c1.987.002 3.598 1.613 3.6 3.6V32.4c-.002 1.987-1.612 3.598-3.6 3.6h-9.368l.801 2.4h6.767a1.8 1.8 0 0 1 0 3.6H12.15a1.8 1.8 0 0 1 0-3.6h6.767l.801-2.4H10.35c-1.987-.002-3.598-1.612-3.6-3.6V13.801c.002-1.987 1.613-3.598 3.6-3.6h7.266c.718-1.571 1.978-2.831 3.549-3.549a7.19 7.19 0 0 1 9.524 3.549zm-.54 3a6 6 0 0 0-6-6 6.01 6.01 0 0 0-6 6 6 6 0 0 0 12 0zm6.6 26.999a.6.6 0 0 0-.6-.6H12.15a.6.6 0 0 0-.6.6.6.6 0 0 0 .6.6h23.999a.6.6 0 0 0 .6-.6zM20.983 36l-.801 2.4h7.933l-.8-2.4h-6.332zm16.966-1.2a2.4 2.4 0 0 0 2.4-2.4v-1.2H7.95v1.2a2.4 2.4 0 0 0 2.4 2.4h27.599zm-29.999-4.8h32.399V13.801a2.4 2.4 0 0 0-2.4-2.4h-6.837c.523 1.973.172 4.075-.963 5.771v3.458l2.573 1.286c.308-.781 1.002-1.343 1.83-1.483 1.304-.219 2.538.66 2.758 1.964s-.66 2.538-1.964 2.758-2.538-.66-2.758-1.964l-3.308-1.653a.6.6 0 0 1-.332-.537v-2.449a7.17 7.17 0 0 1-3 1.612v2.316l1.08.72c.396-.262.86-.4 1.334-.399a2.41 2.41 0 0 1 2.4 2.414 2.41 2.41 0 0 1-2.414 2.4 2.41 2.41 0 0 1-2.4-2.414 2.36 2.36 0 0 1 .277-1.094l-1.21-.806a.6.6 0 0 1-.267-.499V20.37l-.6.031a7.08 7.08 0 0 1-.6-.031v3.63a.6.6 0 0 1-.267.499l-1.21.806c.418.808.36 1.779-.153 2.531-.77 1.129-2.309 1.42-3.437.651s-1.42-2.309-.651-3.437 2.308-1.42 3.437-.651l1.08-.72v-3.516c-1.115-.289-2.144-.841-3-1.612v3.049a.6.6 0 0 1-.41.567l-3.235 1.08c-.155.838-.745 1.53-1.548 1.815-1.242.441-2.606-.208-3.047-1.45s.208-2.606 1.45-3.047 2.606.208 3.047 1.45l2.543-.848v-3.996c-1.134-1.697-1.483-3.799-.96-5.771h-6.84a2.4 2.4 0 0 0-2.4 2.4v16.199zm5.4-6a1.2 1.2 0 0 0 0-2.4 1.2 1.2 0 0 0 0 2.4zm6.6 3.6a1.2 1.2 0 0 0 0-2.4 1.2 1.2 0 0 0 0 2.4zm8.4-3.6a1.2 1.2 0 0 0 0 2.4 1.2 1.2 0 0 0 0-2.4zm6.6-2.4a1.2 1.2 0 0 0 0 2.4 1.2 1.2 0 0 0 0-2.4z"/></svg>
